X: 100379
T: THE BALL HORNPIPE
C: Composed by Wm. Findlay, Haywood.
R: hornpipe
B: K\"ohler's Violin Repository, v.3, 1885 p.251 #3
F: http://www.archive.org/details/klersviolinrepos03rugg
Z: 2012 John Chambers <jc:trillian.mit.edu>
M: C
L: 1/8
K: D
(uA>F) |\
(D>F)A>d (f>e)d>c | (B>A)G>F E2(e>d) | (c>d)e>f (g>e)c>e | (d>e)f>g a2A>F |
(D>F)A>d (f>e)d>c ( B>d)e>f ((3gfe (3dcB) | (A>d)f>a (g>A)B>c | d2d2 d2 :||: (uA>d) |
f>Ad>f (b>a)(g>f) | g>AB>e (g>f)(e>d) | (c>e)a>c (b>a)g>e | (d>e)f>g ((3aba (3gfe) |
f>Ad>f (b>a)(g>f) | g>Ac>e (g>f)(e>d) | (c>e)a>c (b>a)g>e | d2f2 d2 :|

%%sep 2 1 500

